images/expect/3.svg

<svg width="28" height="37" viewBox="0 0 28 37" fill="none" xmlns="http://www.w3.org/2000/svg">
<path d="M13.1881 21.7551L12.9703 21.7551C12.9353 21.7551 12.9009 21.7533 12.8671 21.75C12.8613 21.7495 12.8563 21.7488 12.8529 21.7483C10.4856 21.6573 8.24944 20.6551 6.63005 18.9577C5.00825 17.2579 4.1364 14.9982 4.2055 12.6704C4.27459 10.3426 5.27896 8.13659 6.99869 6.5321C8.71829 4.92773 11.014 4.05443 13.3862 4.10102C15.7584 4.14762 18.0167 5.11039 19.6694 6.7811C21.3222 8.45195 22.2356 10.6957 22.2095 13.0244C22.1833 15.353 21.2198 17.5765 19.5299 19.2113C17.8402 20.8458 15.5611 21.7596 13.1885 21.7551C13.1884 21.7551 13.1883 21.7551 13.1881 21.7551ZM13.1881 21.7551L13.1885 21.5551L13.1881 21.7551ZM26.8925 27.4958C27.1967 27.7774 27.2581 28.1858 27.1523 28.5287C27.0464 28.8714 26.7654 29.1756 26.356 29.244L23.0371 29.8943L22.3741 33.1443C22.3031 33.5499 21.9913 33.8242 21.6461 33.927C21.3006 34.0299 20.8882 33.9713 20.6005 33.6739L17.6403 30.7733V35.1629C17.6521 35.5752 17.4 35.9048 17.0813 36.0721C16.7625 36.2394 16.3463 36.2609 16.0064 36.0251L13.1886 34.1842L10.3708 36.0251C10.0313 36.261 9.61504 36.2395 9.29615 36.0722C8.9773 35.905 8.72482 35.5754 8.73695 35.1628V24.2773C4.10139 22.5212 0.800488 18.1057 0.800488 12.9442C0.800488 6.2439 6.36145 0.8 13.1886 0.8C20.0158 0.8 25.5767 6.24388 25.5768 12.9442L26.8925 27.4958ZM26.8925 27.4958L21.3546 22.0687C22.6518 20.9559 23.6982 19.5887 24.4254 18.0543C25.1841 16.4535 25.5771 14.7095 25.5768 12.9442L26.8925 27.4958ZM13.7697 32.083L13.7697 32.083C13.5972 31.9704 13.3951 31.9105 13.1886 31.9105C12.9822 31.9105 12.78 31.9704 12.6076 32.083L10.8376 33.2393V24.8683C12.3906 25.1619 13.9866 25.1619 15.5396 24.8683V33.2394L13.7697 32.083ZM14.4397 14.5738L13.671 14.1826L13.671 14.1826C13.5217 14.1066 13.3563 14.0671 13.1885 14.0671C13.0207 14.0671 12.8553 14.1066 12.706 14.1826L11.9371 14.5736L12.0781 13.7423L12.0781 13.7423C12.106 13.5781 12.0931 13.4099 12.0407 13.2518L11.8508 13.3147L12.0407 13.2518C11.9883 13.0937 11.898 12.9507 11.7777 12.8347C11.7777 12.8347 11.7777 12.8347 11.7777 12.8347L11.1688 12.2469L12.0179 12.1215C12.0179 12.1215 12.0179 12.1215 12.0179 12.1215C12.1838 12.097 12.3416 12.0338 12.4779 11.9367C12.6142 11.8397 12.7251 11.7117 12.8008 11.5632L13.1885 10.8033L13.5762 11.5632L13.7543 11.4723L13.5762 11.5632C13.6519 11.7117 13.7628 11.8398 13.8991 11.9368C14.0354 12.0338 14.1932 12.0971 14.3591 12.1216C14.3591 12.1216 14.3591 12.1216 14.3591 12.1216L15.2082 12.2469L14.5991 12.835C14.5991 12.835 14.5991 12.835 14.5991 12.835C14.4789 12.9511 14.3886 13.0941 14.3362 13.2521L14.526 13.3151L14.3362 13.2521C14.2838 13.4102 14.2709 13.5785 14.2987 13.7426L14.2987 13.7426L14.4397 14.5738ZM6.30239 12.944C6.30244 11.6111 6.70576 10.3077 7.46186 9.19881C8.21804 8.08976 9.29326 7.22476 10.552 6.71381C11.8108 6.20285 13.1961 6.06909 14.5327 6.32963C15.8692 6.59017 17.0964 7.23315 18.0592 8.17667C19.0219 9.12015 19.6771 10.3217 19.9425 11.6292C20.2079 12.9367 20.0717 14.2919 19.551 15.5238C19.0303 16.7557 18.1483 17.8093 17.0158 18.5508C15.8833 19.2924 14.5515 19.6884 13.1887 19.6885C11.3617 19.6865 9.6109 18.9743 8.3202 17.7094C7.02963 16.4447 6.30445 14.7308 6.30239 12.944ZM2.90116 12.9442C2.90116 7.39141 7.51248 2.86663 13.1886 2.86663C18.8648 2.86663 23.4761 7.39141 23.4761 12.9442C23.4761 18.497 18.8648 23.0217 13.1886 23.0217C7.51248 23.0217 2.90116 18.497 2.90116 12.9442ZM21.9396 28.002C21.737 28.0417 21.5504 28.1393 21.4035 28.2833C21.2565 28.4273 21.1559 28.6112 21.1149 28.8121L20.6985 30.8533L17.6403 27.8563V24.2773C18.3358 24.0137 19.0055 23.6889 19.6413 23.3069L24.017 27.5951L21.9396 28.002ZM13.1885 16.2637L15.3356 17.356C15.7101 17.5606 16.1322 17.4847 16.4323 17.2712C16.7325 17.0576 16.9403 16.6845 16.8564 16.2664L16.4607 13.933L18.1813 12.2723C18.4978 11.9844 18.5554 11.563 18.4398 11.2143C18.3242 10.8656 18.0261 10.5606 17.6007 10.5103L15.2093 10.1574L14.1286 8.03908C13.9464 7.65446 13.5575 7.47345 13.1885 7.47347C12.8195 7.47349 12.4306 7.65453 12.2484 8.03906L11.1676 10.1573L8.77623 10.5102C8.35085 10.5606 8.05278 10.8655 7.93719 11.2142C7.82157 11.5629 7.87934 11.9842 8.1957 12.2723L9.91628 13.9329L9.52055 16.2664C9.4369 16.6843 9.64422 17.0574 9.94427 17.271C10.2443 17.4847 10.6663 17.5604 11.0412 17.356L13.1885 16.2637Z" fill="url(#paint0_linear)" stroke="url(#paint1_linear)" stroke-width="0.4"/>
<defs>
<linearGradient id="paint0_linear" x1="4.25049" y1="1" x2="15.411" y2="35.5443" gradientUnits="userSpaceOnUse">
<stop offset="0.103646" stop-color="#F09642"/>
<stop offset="1" stop-color="#F0DF42"/>
</linearGradient>
<linearGradient id="paint1_linear" x1="5.33382" y1="1" x2="26.7058" y2="24.153" gradientUnits="userSpaceOnUse">
<stop stop-color="#F09642"/>
<stop offset="1" stop-color="#F0DF42"/>
</linearGradient>
</defs>
</svg>

<svg width="28" height="37" fill="none" xmlns="http://www.w3.org/2000/svg"><path d="M13.188 21.755h-.218a1.061 1.061 0 0 1-.117-.007 9.082 9.082 0 0 1-6.223-2.79 8.73 8.73 0 0 1-2.425-6.288A8.75 8.75 0 0 1 7 6.532a9.104 9.104 0 0 1 6.387-2.431 9.09 9.09 0 0 1 6.283 2.68 8.737 8.737 0 0 1 2.54 6.243 8.745 8.745 0 0 1-2.68 6.187 9.098 9.098 0 0 1-6.34 2.544Zm0 0v-.2.2Zm13.704 5.74c.305.282.366.69.26 1.034a1.014 1.014 0 0 1-.796.715l-3.319.65-.663 3.25c-.07.406-.383.68-.728.783-.345.103-.758.044-1.046-.253l-2.96-2.9v4.389c.012.412-.24.742-.559.91a1.035 1.035 0 0 1-1.075-.048l-2.817-1.84-2.818 1.84c-.34.236-.756.215-1.075.047-.319-.167-.571-.497-.559-.91V24.278C4.101 22.521.8 18.106.8 12.944.8 6.244 6.361.8 13.19.8c6.827 0 12.388 5.444 12.388 12.144l1.315 14.552Zm0 0-5.537-5.426a12.145 12.145 0 0 0 3.07-4.015 11.923 11.923 0 0 0 1.152-5.11l1.315 14.552ZM13.77 32.084a1.063 1.063 0 0 0-1.162 0l-1.77 1.156v-8.37a12.66 12.66 0 0 0 4.702 0v8.37l-1.77-1.156Zm.67-17.51-.769-.39a1.064 1.064 0 0 0-.965 0l-.769.39.141-.83a1.017 1.017 0 0 0-.037-.491l-.19.063.19-.063a1.03 1.03 0 0 0-.263-.417l-.61-.588.85-.126a1.06 1.06 0 0 0 .783-.558l.387-.76.388.76.178-.09-.178.09c.076.149.187.277.323.374.136.097.294.16.46.185l.85.125-.61.588c-.12.116-.21.26-.263.417l.19.063-.19-.063a1.018 1.018 0 0 0-.037.49l.14.832Zm-8.138-1.629c0-1.333.404-2.636 1.16-3.745a6.857 6.857 0 0 1 3.09-2.485 7.02 7.02 0 0 1 3.98-.384 6.932 6.932 0 0 1 3.527 1.847 6.703 6.703 0 0 1 1.883 3.452 6.615 6.615 0 0 1-.391 3.895 6.776 6.776 0 0 1-2.535 3.027 6.99 6.99 0 0 1-8.696-.842 6.682 6.682 0 0 1-2.018-4.765Zm-3.4 0c0-5.553 4.61-10.077 10.287-10.077 5.676 0 10.287 4.524 10.287 10.077S18.865 23.022 13.19 23.022C7.512 23.022 2.9 18.497 2.9 12.944ZM21.94 28.002c-.203.04-.39.137-.537.281a1.028 1.028 0 0 0-.288.53l-.416 2.04-3.059-2.997v-3.579a12.459 12.459 0 0 0 2.001-.97l4.376 4.288-2.077.407Zm-8.752-11.738 2.148 1.092c.374.205.796.129 1.096-.085.3-.213.508-.587.424-1.005l-.395-2.333 1.72-1.66c.317-.289.374-.71.259-1.059a1.014 1.014 0 0 0-.84-.704l-2.39-.353-1.081-2.118c-.183-.385-.572-.566-.94-.566-.37 0-.758.182-.94.566l-1.081 2.118-2.392.353c-.425.05-.723.356-.839.704-.115.349-.058.77.259 1.058l1.72 1.66-.395 2.334c-.084.418.123.791.423 1.005.3.214.722.29 1.097.085l2.147-1.092Z" fill="url(#a)" stroke="url(#b)" stroke-width=".4"/><defs><linearGradient id="a" x1="4.25" y1="1" x2="15.411" y2="35.544" gradientUnits="userSpaceOnUse"><stop offset=".104" stop-color="#F09642"/><stop offset="1" stop-color="#F0DF42"/></linearGradient><linearGradient id="b" x1="5.334" y1="1" x2="26.706" y2="24.153" gradientUnits="userSpaceOnUse"><stop stop-color="#F09642"/><stop offset="1" stop-color="#F0DF42"/></linearGradient></defs></svg>
